X:14
T:Dear Irish Boy, The
R:slow air
Z:id:hn-slowair-14
M:3/4
L:1/8
Q:1/4=70
K:Ador
A>B | c4 BA | B e3 d>B | AG/A/ B>A AG- | G4 A>B |
c3 d BA | B e3 dB | AG/A/ B>A A2- | A4 A>B ||
c3 d BA | B e3 dB | AG/A/ B>A AG- | G4 A>B |
c3 d BA | (3B/c/d/ e<a-a ba | ge dB c>B | (3A/B/d/ e<A-A ||
(3efg | aa b>a ge- | e4 (3efg | aa b>a ge- | e4 dB | AG/A/ B>d AG- | G4 (3efg |
aa b>a ge- | e4 d2 | ea b2 g>b | a4-a b | 
c'2 b2 a2 | g2 e2 dB | AG/A/ B>d AG- | G4 AB |
c3 d BA | (3B/c/d/ e<a-a ba | ge dB c>B | (3A/B/d/ e<A-A ||

